X:1
T:Title
%%score 1 2
L:1/8
Q:1/4=90
M:6/8
K:C
V:1 treble nm="Grand Piano, Soprano"
V:2 bass nm="Choir Pad, Only a Word"
V:1
 [CE][B,D][CE] [FA]2 [EG]/[EG]/ | [EG] [DF]2- [DF]3/2 z/ z | [B,D][CE][DF] [DF][EG][DF] | [CE]6 | %4
w: By~Charles~Clinton~Case * * * * *||||
 [CE][B,D][CE] [FA]2 [EG]/[EG]/ | [DF][FA][EG] [DF]2 [FA]/[FA]/ | [EG][DF][CE] [DF]2 [B,D] | %7
w: |||
 [CE]6 | [EG]3- [EG][FA][EG] | [DF]6 | [FB]3- [FB][FA][FG] | [Ec]6 | [Ac]3- [Ac][GB][FA] | %13
w: ||||||
 [EG]3- [EG]3/2 z/ [EG]/[EG]/ | [DF]3 [B,D]3 | C6- | C3 z3 |] %17
w: ||||
V:2
 [C,C][C,C][C,C] [C,C]2 [C,G,]/[C,G,]/ | [G,,G,] [G,,G,]2- [G,,G,]3/2 z/ z | %2
 [G,,G,][G,,G,][G,,G,] [G,,G,][G,,G,][G,,G,] | [C,G,]6 | [C,C][C,C][C,C] [C,C]2 [C,C]/[C,C]/ | %5
 [C,C]2 [C,G,] [G,,G,]2 [G,,G,]/[G,,G,]/ | [G,,G,]2 [G,,G,] [G,,G,]2 [G,,G,] | [C,G,]6 | z6 | %9
 [G,,G,][G,,G,][G,,G,] .[G,,G,]3 | z6 | [C,G,][C,G,][C,G,] .[C,G,]3 | [F,C][F,C][F,C] .[F,C]3 | %13
 [C,C][C,C][C,C] [C,C]2 [C,G,]/[C,G,]/ | [G,,G,]3 [G,,F,]3 | [C,E,]6- | [C,E,]3 z3 |] %17

